www/assets/icons/key_off.svg

<svg width="24" height="24" viewBox="0 0 24 24" xmlns="http://www.w3.org/2000/svg" fill='currentColor'><path d="M16.91 13.385L17 13.295L19 15.295L23 11.255L21 9.29498H12.83L16.91 13.385ZM3.98 6.10498C2.2 7.14498 1 9.08498 1 11.295C1 14.605 3.69 17.295 7 17.295C9.21 17.295 11.15 16.095 12.18 14.305L19.77 21.895L21.18 20.485L2.81 2.10498L1.39 3.51498L3.98 6.10498ZM9.91 12.035C9.58 13.325 8.4 14.295 7 14.295C5.35 14.295 4 12.945 4 11.295C4 9.89498 4.97 8.71498 6.26 8.38498L9.91 12.035Z"/></svg>

<svg xmlns="http://www.w3.org/2000/svg" width="24" height="24" viewBox="0 0 24 24" fill='currentColor'><path d="m16.91 13.385.09-.09 2 2 4-4.04-2-1.96h-8.17zM3.98 6.105A6.01 6.01 0 0 0 1 11.295c0 3.31 2.69 6 6 6 2.21 0 4.15-1.2 5.18-2.99l7.59 7.59 1.41-1.41L2.81 2.105l-1.42 1.41zm5.93 5.93A3.015 3.015 0 0 1 7 14.295c-1.65 0-3-1.35-3-3 0-1.4.97-2.58 2.26-2.91z"/></svg>
